X:850
T:Scattery Island
R:Slide
D:Sean Ryan: Siuil Uait
D:Four Men and a Dog: Shifting Gravel
B:Irish Traditional Music Session Tunes 2 n40
S:My arrangement from various sources
Z:Transcription, arrangement, chords:Mike Long
M:12/8
L:1/8
K:D
A|\
"D"FGA d2A FGA dcd|"A"e2A cBA e2A "(G)"cBA|\
"D"FGA d2A FGA dcd|"A"e2A cBA [1 "G"f2e d2:|
[2"G"f2e d|:fg|\
"D"~a3 faf ~d3 def|"G"~g3 "D"fgf "A"~e3 efg|\
"D"~a3 "(A)"f2e "D"~d3 dcd|"A"e2A cBA [1 "G"f2e d:|[2 "G"f2e d2|]
